localPackages/DesignSystem/Sources/DesignSystem/Resources/Assets.xcassets/IconSet/ic-broom.imageset/ic-broom.svg

<svg width="24" height="24" viewBox="0 0 24 24" fill="none" xmlns="http://www.w3.org/2000/svg">
<g id="ic-broom">
<path id="Icon" fill-rule="evenodd" clip-rule="evenodd" d="M19.5 22.5H7.80278H7.8C7.63431 22.5 7.5 22.3657 7.5 22.2V21.7873V20.3095V20.2995C7.5 20.2847 7.48075 20.2789 7.47252 20.2912L7.46697 20.2995L6.64727 21.5291L6.2 22.2L6.08906 22.3664C6.06916 22.3963 6.04438 22.4219 6.01618 22.4424C5.96555 22.4793 5.90387 22.5 5.83944 22.5H4.5H3V21V12C3 10.3431 4.34315 9 6 9H7.5H9V7.5V3C9 2.17157 9.67157 1.5 10.5 1.5H13.5C14.3284 1.5 15 2.17157 15 3V7.5V9H16.5H18C19.6569 9 21 10.3431 21 12V21V22.5H19.5ZM19.5 21H9V20.2995C9 18.8006 7.05591 18.212 6.22444 19.4592L5.19722 21H4.5V15H19.5V21ZM19.5 13.5H4.5V12C4.5 11.1716 5.17157 10.5 6 10.5H9H10.5V9V3L13.5 3V9V10.5H15H18C18.8284 10.5 19.5 11.1716 19.5 12V13.5Z" fill="#0F0F0F"/>
</g>
</svg>

<svg xmlns="http://www.w3.org/2000/svg" width="24" height="24" viewBox="0 0 24 24">
  <g class="ic-broom">
    <path fill-rule="evenodd" d="M19.5 22.5H7.8a.3.3 0 0 1-.3-.3v-1.9c0-.015-.02-.021-.027-.009l-.006.008-.82 1.23-.447.671-.11.166a.298.298 0 0 1-.25.134H3V12a3 3 0 0 1 3-3h3V3a1.5 1.5 0 0 1 1.5-1.5h3A1.5 1.5 0 0 1 15 3v6h3a3 3 0 0 1 3 3v10.5h-1.5Zm0-1.5H9v-.7c0-1.5-1.944-2.088-2.776-.84L5.197 21H4.5v-6h15v6Zm0-7.5h-15V12A1.5 1.5 0 0 1 6 10.5h4.5V3h3v7.5H18a1.5 1.5 0 0 1 1.5 1.5v1.5Z" class="Icon"/>
  </g>
</svg>
